X:1
L:1/8
M:2/2
K:G
 A2 || BGAF DG G/G/G | AG G/G/G d2 cA | BGGF GAdB | cAFA AGGA | BGAF DG G/G/G | AG G/G/G d2 cA | 
 BGGF GAGe | fdcA AGGA || AGGA GAag | fdcA ABcA | AGGA GAag | fdcA AGGA | Gfge dedc | BdBG A2 dc | 
 BGGF GAGe | fdcA AG G2 || BGdG BGdB | AFdF AFdA | BGdG BGdG | cAFA AGGA | BGdG BGdB | AFdF AFdA | 
 BGGF GAGe | fdcA AG G2 || B2 GB GBGB | A2 FA DAFA | B2 GB GBGB | BAFA AG G2 | B2 GB GBGB | 
 A2 FA DAFA | BGGF GAGe | fdcA AG G2 ||
